X:1
T:Title
%%score ( 1 2 ) ( 3 4 )
L:1/8
Q:1/4=100
M:4/4
K:F
V:1 treble nm="Midi_20"
V:2 treble 
V:3 bass nm="Midi_20"
V:4 bass 
V:1
"^Constance (8 7. 8 7. D. Iambic)" A2 | A2 A2 B2 G2 | c3 d c2 B2 | A2 A2 B2 G2 | %4
"^Sir Arthur Sullivan\n(1842-1900)" G2 F2 z2 ||[M:4/4] A2 | c2 B2 B2 A2 | A3 G F2 F2 | %8
 E2 A2 c2 =B2 | =B2 A2 z2 || A2 | A2 (GA) B2 B2 | A2 (GA) B2 c2 | d3 c B2 A2 | A2 G2 z2 || c2 | %16
 c2 c2 f3 A | A2 A2 c3 || F | F2 F2 A3 G | G2 F2 z2 |] %21
V:2
 F2 | F2 F2 E2 E2 | F3 F F2 F2 | F2 F2 E2 E2 | E2 F2 z2 ||[M:4/4] F2 | A2 G2 G2 F2 | E3 E D2 D2 | %8
 C2 E2 A2 ^G2 | ^G2 A2 z2 || A2 | ^F2 (EF) G2 G2 | ^F2 (EF) G2 A2 | B3 A G2 F2 | F2 E2 z2 || E2 | %16
 F2 E2 F3 F | E2 D2 C3 || D | C2 C2 F3 E | E2 F2 z2 |] %21
V:3
 C2 | C2 C2 C2 C2 | C3 B, C2 D2 | C2 C2 G,2 B,2 | B,2 A,2 z2 ||[M:4/4] C2 | C2 C2 C2 C2 | %7
 ^C3 C D2 A,2 | A,2 C2 E2 D2 | D2 C2 z2 || A,2 | C2 C2 B,2 D2 | D2 D2 D2 _E2 | D3 D D2 D2 | %14
 C2 C2 z2 || C2 | C2 B,2 A,3 F, | F,2 F,2 F,3 || B, | A,2 A,2 C3 B, | B,2 A,2 z2 |] %21
V:4
 F,2 | F,2 F,2 G,2 B,2 | A,3 B, A,2 B,2 | C2 C,2 C,2 C,2 | C,2 F,2 z2 ||[M:4/4] F,2 | %6
 E,2 E,2 F,2 (F,G,) | A,3 A, D,2 D,2 | E,2 E,2 E,2 E,2 | E,2 A,,2 z2 || A,2 | D,2 D,2 G,2 (B,,C,) | %12
 D,2 D,2 G,2 F,2 | B,3 B,, B,,2 =B,,2 | C,2 C,2 z2 || B,2 | A,2 G,2 F,3 D, | C,2 B,,2 A,,3 || B,, | %19
 C,2 C,2 C,3 C, | C,2 F,2 z2 |] %21

